src/mgs2018logo.svg

<svg width="459" height="227" viewBox="0 0 459 227" xmlns="http://www.w3.org/2000/svg" xmlns:xlink="http://www.w3.org/1999/xlink"><title>Grad Show_ chunky slash_black</title><defs><path id="a" d="M0.06 0.463L0.06 176.575 378.492 176.575 378.492 0.463 0.06 0.463z"/><path id="c" d="M215.529 113.7885L215.529 226.94 0.712 226.94 0.712 0.637 215.529 0.637z"/></defs><g fill="none" fill-rule="evenodd"><path d="M106.474 21.071c17.515 0 27.839 9.512 32.595 20.184l-14.616 6.147c-3.247-7.771-9.163-11.948-17.747-11.948-12.992 0-20.532 9.977-20.532 26.448 0 16.704 7.308 26.795 20.648 26.795 11.484 0 16.703-7.308 17.631-16.703h-22.387V56.566h37.467v44.775h-15.312v-6.96c-3.364 4.06-10.671 8.352-20.531 8.352-21.576 0-34.916-16.703-34.916-40.831 0-24.244 14.848-40.831 37.7-40.831m66.004 36.191h13.803c4.408 0 8.584-.232 11.368-2.088 2.32-1.508 3.712-3.944 3.712-7.656 0-3.712-1.392-6.148-3.712-7.655-2.784-1.856-6.96-2.088-11.368-2.088h-13.803v19.487zm0 15.08v28.999h-17.4V22.463h29.579c8.816 0 14.616.812 18.792 2.436 9.164 3.712 15.196 11.02 15.196 22.619 0 12.064-6.38 19.836-16.588 22.62l19.604 31.203h-19.836l-17.632-28.999h-11.715zm96.047-23.316c-1.392-4.988-2.668-10.207-2.668-10.207h-.116s-1.392 5.219-2.9 10.323l-6.728 22.156h18.908l-6.496-22.272zm-21.228 52.315h-18.443l26.563-78.878h21.228l26.331 78.878h-18.792l-4.64-15.66h-27.722l-4.525 15.66z" fill="#000"/><g transform="translate(0 22)"><mask id="b" fill="#fff"><use xlink:href="#a"/></mask><path d="M327.801 62.986h8.004c8.004 0 14.384-.117 18.327-4.06 3.365-3.364 6.264-9.976 6.264-18.792 0-8.352-2.668-15.196-7.075-19.023-4.061-3.48-9.628-4.06-18.792-4.06h-6.728v45.935zm-17.399 16.355V.463h28.999c7.076 0 14.5.348 20.995 3.596 12.18 5.916 18.096 20.067 18.096 35.611 0 13.572-4.408 24.36-11.716 31.435-8.352 8.236-17.863 8.236-32.479 8.236h-23.895zM54.287 117.996c-5.452-5.219-12.528-8.584-20.415-8.584-7.308 0-12.412 3.017-12.412 8.004 0 5.105 3.596 7.193 10.788 8.584l12.759 2.552c14.616 2.9 23.78 8.7 23.78 22.62 0 16.356-14.5 25.403-33.176 25.403-18.211 0-30.739-9.744-35.611-16.471l12.18-10.441c4.872 6.496 12.992 12.296 23.895 12.296 9.164 0 14.5-3.595 14.5-9.395 0-5.452-4.64-6.96-11.832-8.237l-10.207-1.971c-14.384-2.784-25.288-8.004-25.288-23.432 0-14.151 13.108-24.011 30.392-24.011 13.919 0 25.055 5.22 31.783 12.412l-11.136 10.671" fill="#000" mask="url(#b)"/></g><path fill="#000" d="M99.875 164.472L99.875 197.183 82.359 197.183 82.359 118.305 99.875 118.305 99.875 148.697 129.106 148.697 129.106 118.305 146.622 118.305 146.622 197.183 129.106 197.183 129.106 164.472 99.875 164.472"/><path d="M198.241 183.843c13.34 0 20.648-9.627 20.648-26.099 0-16.471-7.54-26.448-20.648-26.448-13.224 0-20.648 9.977-20.648 26.448 0 16.472 7.192 26.099 20.648 26.099zm0-66.93c23.316 0 38.163 16.587 38.163 40.831 0 24.127-13.803 40.831-38.163 40.831-24.012 0-38.163-16.704-38.163-40.831 0-24.244 14.847-40.831 38.163-40.831z" fill="#000"/><g transform="translate(243)"><mask id="d" fill="#fff"><use xlink:href="#c"/></mask><path d="M62.307 118.305l7.424 27.144c3.828 13.919 7.656 30.739 7.656 30.739h.232s3.248-18.328 6.843-34.915l4.872-22.968h18.212l-19.255 78.878h-20.3l-6.96-25.403c-3.48-12.644-6.844-28.999-6.844-28.999h-.115s-2.668 12.643-6.844 28.419l-6.96 25.983H19.852L.712 118.305h18.329l5.335 24.243c2.436 11.136 6.496 34.451 6.496 34.451h.116s3.364-15.659 7.656-32.363l6.728-26.331h16.935" fill="#000" mask="url(#d)"/><path fill="#000" mask="url(#d)" d="M141.266 227L124.656 221.414 198.918 0.637 215.529 6.223 141.266 227"/></g></g></svg>

<?xml version="1.0" encoding="UTF-8"?>
<svg width="459px" height="227px" viewBox="0 0 459 227" version="1.1" xmlns="http://www.w3.org/2000/svg" xmlns:xlink="http://www.w3.org/1999/xlink">
    <!-- Generator: Sketch 46.2 (44496) - http://www.bohemiancoding.com/sketch -->
    <title>Grad Show_ chunky slash_black</title>
    <desc>Created with Sketch.</desc>
    <defs>
        <polygon id="path-1" points="0.06 0.463 0.06 176.575 378.492 176.575 378.492 0.463 0.06 0.463"></polygon>
        <polygon id="path-3" points="215.529 113.7885 215.529 226.94 0.712 226.94 0.712 0.637 215.529 0.637"></polygon>
    </defs>
    <g id="Page-1" stroke="none" stroke-width="1" fill="none" fill-rule="evenodd">
        <g id="Grad-Show_-chunky-slash_black">
            <path d="M106.474,21.071 C123.989,21.071 134.313,30.583 139.069,41.255 L124.453,47.402 C121.206,39.631 115.29,35.454 106.706,35.454 C93.714,35.454 86.174,45.431 86.174,61.902 C86.174,78.606 93.482,88.697 106.822,88.697 C118.306,88.697 123.525,81.389 124.453,71.994 L102.066,71.994 L102.066,56.566 L139.533,56.566 L139.533,101.341 L124.221,101.341 L124.221,94.381 C120.857,98.441 113.55,102.733 103.69,102.733 C82.114,102.733 68.774,86.03 68.774,61.902 C68.774,37.658 83.622,21.071 106.474,21.071" id="Fill-1" fill="#000000"></path>
            <path d="M172.478,57.262 L186.281,57.262 C190.689,57.262 194.865,57.03 197.649,55.174 C199.969,53.666 201.361,51.23 201.361,47.518 C201.361,43.806 199.969,41.37 197.649,39.863 C194.865,38.007 190.689,37.775 186.281,37.775 L172.478,37.775 L172.478,57.262 Z M172.478,72.342 L172.478,101.341 L155.078,101.341 L155.078,22.463 L184.657,22.463 C193.473,22.463 199.273,23.275 203.449,24.899 C212.613,28.611 218.645,35.919 218.645,47.518 C218.645,59.582 212.265,67.354 202.057,70.138 L221.661,101.341 L201.825,101.341 L184.193,72.342 L172.478,72.342 L172.478,72.342 Z" id="Fill-2" fill="#000000"></path>
            <path d="M268.525,49.026 C267.133,44.038 265.857,38.819 265.857,38.819 L265.741,38.819 C265.741,38.819 264.349,44.038 262.841,49.142 L256.113,71.298 L275.021,71.298 L268.525,49.026 Z M247.297,101.341 L228.854,101.341 L255.417,22.463 L276.645,22.463 L302.976,101.341 L284.184,101.341 L279.544,85.681 L251.822,85.681 L247.297,101.341 L247.297,101.341 Z" id="Fill-3" fill="#000000"></path>
            <g id="Group-7" transform="translate(0.000000, 22.000000)">
                <mask id="mask-2" fill="white">
                    <use xlink:href="#path-1"></use>
                </mask>
                <g id="Clip-5"></g>
                <path d="M327.801,62.986 L335.805,62.986 C343.809,62.986 350.189,62.869 354.132,58.926 C357.497,55.562 360.396,48.95 360.396,40.134 C360.396,31.782 357.728,24.938 353.321,21.111 C349.26,17.631 343.693,17.051 334.529,17.051 L327.801,17.051 L327.801,62.986 Z M310.402,79.341 L310.402,0.463 L339.401,0.463 C346.477,0.463 353.901,0.811 360.396,4.059 C372.576,9.975 378.492,24.126 378.492,39.67 C378.492,53.242 374.084,64.03 366.776,71.105 C358.424,79.341 348.913,79.341 334.297,79.341 L310.402,79.341 L310.402,79.341 Z" id="Fill-4" fill="#000000" mask="url(#mask-2)"></path>
                <path d="M54.287,117.996 C48.835,112.777 41.759,109.412 33.872,109.412 C26.564,109.412 21.46,112.429 21.46,117.416 C21.46,122.521 25.056,124.609 32.248,126 L45.007,128.552 C59.623,131.452 68.787,137.252 68.787,151.172 C68.787,167.528 54.287,176.575 35.611,176.575 C17.4,176.575 4.872,166.831 0,160.104 L12.18,149.663 C17.052,156.159 25.172,161.959 36.075,161.959 C45.239,161.959 50.575,158.364 50.575,152.564 C50.575,147.112 45.935,145.604 38.743,144.327 L28.536,142.356 C14.152,139.572 3.248,134.352 3.248,118.924 C3.248,104.773 16.356,94.913 33.64,94.913 C47.559,94.913 58.695,100.133 65.423,107.325 L54.287,117.996" id="Fill-6" fill="#000000" mask="url(#mask-2)"></path>
            </g>
            <polyline id="Fill-8" fill="#000000" points="99.875 164.472 99.875 197.183 82.359 197.183 82.359 118.305 99.875 118.305 99.875 148.697 129.106 148.697 129.106 118.305 146.622 118.305 146.622 197.183 129.106 197.183 129.106 164.472 99.875 164.472"></polyline>
            <path d="M198.241,183.843 C211.581,183.843 218.889,174.216 218.889,157.744 C218.889,141.273 211.349,131.296 198.241,131.296 C185.017,131.296 177.593,141.273 177.593,157.744 C177.593,174.216 184.785,183.843 198.241,183.843 Z M198.241,116.913 C221.557,116.913 236.404,133.5 236.404,157.744 C236.404,181.871 222.601,198.575 198.241,198.575 C174.229,198.575 160.078,181.871 160.078,157.744 C160.078,133.5 174.925,116.913 198.241,116.913 L198.241,116.913 Z" id="Fill-9" fill="#000000"></path>
            <g id="Group-13" transform="translate(243.000000, 0.000000)">
                <mask id="mask-4" fill="white">
                    <use xlink:href="#path-3"></use>
                </mask>
                <g id="Clip-11"></g>
                <path d="M62.307,118.305 L69.731,145.449 C73.559,159.368 77.387,176.188 77.387,176.188 L77.619,176.188 C77.619,176.188 80.867,157.86 84.462,141.273 L89.334,118.305 L107.546,118.305 L88.291,197.183 L67.991,197.183 L61.031,171.78 C57.551,159.136 54.187,142.781 54.187,142.781 L54.072,142.781 C54.072,142.781 51.404,155.424 47.228,171.2 L40.268,197.183 L19.852,197.183 L0.712,118.305 L19.041,118.305 L24.376,142.548 C26.812,153.684 30.872,176.999 30.872,176.999 L30.988,176.999 C30.988,176.999 34.352,161.34 38.644,144.636 L45.372,118.305 L62.307,118.305" id="Fill-10" fill="#000000" mask="url(#mask-4)"></path>
                <polyline id="Fill-12" fill="#000000" mask="url(#mask-4)" points="141.266 227 124.656 221.414 198.918 0.637 215.529 6.223 141.266 227"></polyline>
            </g>
        </g>
    </g>
</svg>
